X: 14838
T: Garfield's Blackberry Blossom
R: reel
M: 4/4
K: Gmajor
|:"G"gagf gagf|dcBd "C"cBG2|"G" gagf gagf|d2[B2g2][B2g2] ga|
"D"b2a2 "G"gagf|dcBd "C"cBG2|"G"GDBc "D"d2cB|"G"[G,2D2] GF G4:|
|:"G"[G,2G2] Bc d2 [B2g2]|dcBd "C"cBG2|"G"G2 Bc "D"d2 cB|"G"G2 GF G4|
"G"[G,2G2] Bc d2 [B2g2]|dcBd "C"cBG2|"G"GAGF "D"DCB,C|"G"[G,2D2] GF G4:|

